assets/tab/tab_album.svg

<svg height="20" viewBox="0 0 20 20" width="20" xmlns="http://www.w3.org/2000/svg"><path d="m12.7550466.4072205v9.6645963c0 1.5403726-1.2670808 2.8074534-2.80745343 2.8074534-1.54037267 0-2.80745342-1.2670808-2.80745342-2.8074534 0-1.5403727 1.26708075-2.80745345 2.80745342-2.80745345.49689443 0 .96894413.12422361 1.39130433.37267081v-7.52795031c-.4720497-.07453416-.9192546-.09937888-1.39130433-.09937888-5.49068323 0-9.9378882 4.44720497-9.9378882 9.9378882s4.44720497 9.93788823 9.9378882 9.93788823 9.93788823-4.447205 9.93788823-9.93788823c0-4.52173913-3.0062112-8.32298137-7.1304348-9.54037267zm-8.49689443 8.09937888h-1.44099378c1.01863354-2.48447205 3.00621118-4.44720497 5.49068322-5.49068323v1.44099379c-1.78881987.81987577-3.22981366 2.26086956-4.04968944 4.04968944zm7.20496893 8.62111802v-1.4409938c1.7142857-.8944099 3.1552795-2.3354037 4.0496895-4.0496894h1.4409937c-1.0434782 2.484472-3.0310559 4.4720497-5.4906832 5.4906832z" fill="#d1e0f3" fill-rule="evenodd"/></svg>

<?xml version="1.0" encoding="UTF-8"?>
<svg width="20px" height="20px" viewBox="0 0 20 20" version="1.1" xmlns="http://www.w3.org/2000/svg" xmlns:xlink="http://www.w3.org/1999/xlink">
    <title>编组</title>
    <g id="页面-1" stroke="none" stroke-width="1" fill="none" fill-rule="evenodd">
        <g id="歌库-歌曲" transform="translate(-178.000000, -738.000000)" fill="#D1E0F3">
            <g id="编组" transform="translate(178.000000, 738.000000)">
                <path d="M12.7550466,0.407220497 L12.7550466,10.0718168 C12.7550466,11.6121894 11.4879658,12.8792702 9.94759317,12.8792702 C8.4072205,12.8792702 7.14013975,11.6121894 7.14013975,10.0718168 C7.14013975,8.5314441 8.4072205,7.26436335 9.94759317,7.26436335 C10.4444876,7.26436335 10.9165373,7.38858696 11.3388975,7.63703416 L11.3388975,0.109083851 C10.8668478,0.0345496894 10.4196429,0.00970496894 9.94759317,0.00970496894 C4.45690994,0.00970496894 0.00970496894,4.45690994 0.00970496894,9.94759317 C0.00970496894,15.4382764 4.45690994,19.8854814 9.94759317,19.8854814 C15.4382764,19.8854814 19.8854814,15.4382764 19.8854814,9.94759317 C19.8854814,5.42585404 16.8792702,1.6246118 12.7550466,0.407220497 Z M4.25815217,8.50659938 L2.81715839,8.50659938 C3.83579193,6.02212733 5.82336957,4.05939441 8.30784161,3.01591615 L8.30784161,4.45690994 C6.51902174,5.27678571 5.07802795,6.7177795 4.25815217,8.50659938 L4.25815217,8.50659938 Z M11.4631211,17.1277174 L11.4631211,15.6867236 C13.1774068,14.7923137 14.6184006,13.3513199 15.5128106,11.6370342 L16.9538043,11.6370342 C15.9103261,14.1215062 13.9227484,16.1090839 11.4631211,17.1277174 L11.4631211,17.1277174 Z" id="形状"></path>
            </g>
        </g>
    </g>
</svg>
